paymentMethods/unionPay.svg

<svg width="128" height="64" viewBox="0 0 128 64" fill="none" xmlns="http://www.w3.org/2000/svg">
<rect width="128" height="64" rx="6" fill="white"/>
<path d="M34.8248 2H58.7658C62.1078 2 64.1864 4.72398 63.4068 8.07703L52.2605 55.9323C51.4739 59.2737 48.1278 62 44.7835 62H20.8448C17.5075 62 15.4243 59.2737 16.2039 55.9323L27.3548 8.07703C28.1344 4.72398 31.4787 2 34.8248 2Z" fill="#E21836"/>
<path d="M56.7737 2H84.3053C87.6467 2 86.14 4.72398 85.354 8.07703L74.2094 55.9323C73.4275 59.2737 73.6714 62 70.323 62H42.7914C39.443 62 37.3709 59.2737 38.1575 55.9323L49.3014 8.07703C50.0927 4.72398 53.43 2 56.7737 2Z" fill="#00447C"/>
<path d="M83.2133 2H107.154C110.501 2 112.58 4.72398 111.794 8.07703L100.649 55.9323C99.8624 59.2737 96.514 62 93.168 62H69.238C65.8896 62 63.8128 59.2737 64.5971 55.9323L75.7433 8.07703C76.5229 4.72398 79.8649 2 83.2133 2Z" fill="#007B84"/>
<path d="M41.0773 17.3362C38.6153 17.3613 37.8882 17.3362 37.656 17.2814C37.5667 17.7056 35.9054 25.3693 35.9007 25.3757C35.543 26.9262 35.2827 28.0314 34.3986 28.7451C33.8968 29.16 33.3109 29.3601 32.6317 29.3601C31.5399 29.3601 30.9038 28.818 30.797 27.7898L30.7766 27.4368C30.7766 27.4368 31.1092 25.3599 31.1092 25.3483C31.1092 25.3483 32.8528 18.3644 33.165 17.4412C33.1814 17.3887 33.186 17.3613 33.1901 17.3362C29.7962 17.366 29.1946 17.3362 29.1532 17.2814C29.1304 17.3566 29.0464 17.7896 29.0464 17.7896L27.266 25.661L27.1131 26.3286L26.8172 28.5122C26.8172 29.16 26.9445 29.6887 27.1977 30.1357C28.0088 31.5531 30.3226 31.7655 31.6315 31.7655C33.3179 31.7655 34.8999 31.4072 35.969 30.753C37.8246 29.6566 38.3101 27.9427 38.7431 26.4197L38.9439 25.6383C38.9439 25.6383 40.74 18.3848 41.0452 17.4412C41.0569 17.3887 41.0616 17.3613 41.0773 17.3362ZM47.1886 23.1876C46.7556 23.1876 45.9643 23.2927 45.2536 23.641C44.9956 23.7735 44.7517 23.9264 44.4944 24.0787L44.7266 23.2402L44.5994 23.0989C43.0921 23.4041 42.7548 23.445 41.3625 23.641L41.2458 23.7187C41.0841 25.0591 40.9406 26.0668 40.3413 28.7015C40.1131 29.6726 39.8762 30.6529 39.6387 31.6216L39.7029 31.7447C41.1297 31.6694 41.5626 31.6694 42.8027 31.6899L42.903 31.5807C43.0606 30.7737 43.081 30.5846 43.43 28.9501C43.594 28.1752 43.9359 26.4724 44.1046 25.8661C44.4144 25.7226 44.7202 25.5813 45.012 25.5813C45.707 25.5813 45.6224 26.1876 45.5955 26.4292C45.5658 26.8348 45.3125 28.1594 45.0528 29.2968L44.8795 30.0309C44.7587 30.573 44.6263 31.0999 44.5055 31.6374L44.558 31.7447C45.9643 31.6694 46.3932 31.6694 47.5942 31.6899L47.7354 31.5807C47.9525 30.3203 48.0161 29.983 48.4012 28.1478L48.5949 27.3045C48.9713 25.6543 49.1604 24.8175 48.8756 24.1359C48.5745 23.372 47.8521 23.1876 47.1886 23.1876ZM54.0156 24.9155C53.2681 25.059 52.7913 25.1547 52.3175 25.2166C51.8477 25.2918 51.3896 25.3601 50.6672 25.4605L50.61 25.5124L50.5575 25.5538C50.4822 26.0919 50.4297 26.557 50.3299 27.1037C50.2453 27.6692 50.1152 28.3117 49.9034 29.2348C49.7394 29.9415 49.6548 30.1878 49.5614 30.4364C49.4704 30.6849 49.37 30.9265 49.1856 31.6215L49.2288 31.6857L49.265 31.7447C49.9401 31.7126 50.3819 31.6898 50.8359 31.6857C51.2893 31.6694 51.759 31.6857 52.4861 31.6898L52.5497 31.6379L52.618 31.5807C52.723 30.954 52.7388 30.7853 52.803 30.4795C52.8666 30.1516 52.9763 29.6976 53.2453 28.485C53.3725 27.9154 53.5143 27.3477 53.6462 26.7665C53.7833 26.1876 53.9269 25.6175 54.0634 25.0479L54.043 24.9791L54.0156 24.9155ZM54.0315 22.5858C53.3523 22.1849 52.1601 22.3121 51.3577 22.8659C50.5577 23.4086 50.4667 24.1789 51.1436 24.585C51.8111 24.9749 53.008 24.8587 53.8034 24.3003C54.6016 23.7459 54.7014 22.9826 54.0315 22.5858ZM58.1394 31.8703C59.5136 31.8703 60.9223 31.4916 61.9826 30.3677C62.7984 29.4562 63.1724 28.1 63.302 27.5416C63.7239 25.6906 63.3954 24.8263 62.9828 24.3C62.3561 23.4976 61.2485 23.2403 60.0995 23.2403C59.4086 23.2403 57.763 23.3085 56.4774 24.4937C55.5543 25.3486 55.1277 26.5087 54.8704 27.6209C54.6107 28.7542 54.3119 30.7942 56.188 31.5534C56.7669 31.802 57.6014 31.8703 58.1394 31.8703ZM58.032 27.7055C58.3489 26.3039 58.7229 25.1275 59.6776 25.1275C60.4257 25.1275 60.48 26.0028 60.1474 27.4091C60.0878 27.7213 59.8147 28.882 59.4454 29.3762C59.1874 29.741 58.8822 29.9621 58.5449 29.9621C58.4446 29.9621 57.8476 29.9621 57.8383 29.0757C57.8336 28.6381 57.9229 28.1911 58.032 27.7055ZM66.7373 31.69L66.8447 31.5809C66.997 30.7739 67.0221 30.5842 67.3594 28.9503C67.528 28.1754 67.877 26.4726 68.041 25.8663C68.3514 25.7221 68.6519 25.5809 68.953 25.5809C69.6434 25.5809 69.5593 26.1872 69.5319 26.4288C69.5068 26.835 69.2536 28.159 68.9892 29.2964L68.8252 30.0304C68.6998 30.5731 68.5632 31.0995 68.4424 31.6375L68.495 31.7449C69.906 31.6696 70.3185 31.6696 71.5265 31.69L71.6724 31.5809C71.8842 30.3199 71.9414 29.9826 72.3382 28.1479L72.5272 27.3041C72.9054 25.6539 73.0968 24.8176 72.8167 24.1361C72.5068 23.3722 71.7797 23.1878 71.1256 23.1878C70.692 23.1878 69.8966 23.2923 69.19 23.6412C68.9373 23.7737 68.684 23.926 68.4354 24.0789L68.6519 23.2403L68.5358 23.0985C67.0291 23.4043 66.6848 23.4452 65.2942 23.6412L65.1874 23.7188C65.0188 25.0592 64.8816 26.0664 64.2823 28.7017C64.0542 29.6727 63.8173 30.6531 63.5803 31.6218L63.6439 31.7449C65.073 31.6696 65.4996 31.6696 66.7373 31.69ZM77.1043 31.7446C77.193 31.3116 77.7199 28.7452 77.7246 28.7452C77.7246 28.7452 78.1733 26.8621 78.2007 26.7938C78.2007 26.7938 78.342 26.5977 78.4832 26.5201H78.6909C80.651 26.5201 82.8644 26.5201 84.5993 25.2439C85.7798 24.3686 86.5869 23.0761 86.9469 21.5052C87.0403 21.12 87.1091 20.6619 87.1091 20.2039C87.1091 19.6022 86.9883 19.007 86.6394 18.5419C85.7547 17.3042 83.993 17.2815 81.9594 17.2721C81.9529 17.2721 80.9568 17.2815 80.9568 17.2815C78.3536 17.3136 77.3097 17.3042 76.8808 17.2517C76.8446 17.4414 76.7763 17.7786 76.7763 17.7786C76.7763 17.7786 75.8438 22.1004 75.8438 22.1074C75.8438 22.1074 73.6123 31.2959 73.5073 31.7289C75.7802 31.7014 76.7121 31.7014 77.1043 31.7446ZM78.8321 24.0675C78.8321 24.0675 79.8236 19.7545 79.8189 19.7709L79.851 19.5497L79.865 19.3811L80.2612 19.4219C80.2612 19.4219 82.306 19.5976 82.3538 19.6022C83.1609 19.9144 83.4935 20.7191 83.2612 21.7695C83.0494 22.7294 82.4268 23.5365 81.6267 23.9263C80.9679 24.2566 80.1609 24.284 79.3293 24.284H78.7913L78.8321 24.0675ZM85.0051 27.7854C84.7431 28.9023 84.442 30.9424 86.3087 31.6695C86.904 31.9228 87.4373 31.998 87.9794 31.9706C88.5519 31.9397 89.0823 31.6526 89.5737 31.2394C89.5293 31.4092 89.485 31.5791 89.4406 31.7495L89.5252 31.8586C90.868 31.802 91.2846 31.802 92.7394 31.8131L92.8713 31.7127C93.0837 30.4639 93.2838 29.2513 93.8359 26.8623C94.1049 25.7179 94.3733 24.5847 94.6493 23.445L94.6062 23.3196C93.1041 23.5979 92.7026 23.6574 91.2578 23.8623L91.1481 23.9516C91.1335 24.0677 91.1183 24.1791 91.1043 24.2906C90.8796 23.9276 90.554 23.6178 90.0516 23.4246C89.4091 23.1719 87.9001 23.4976 86.6029 24.6786C85.6914 25.5219 85.2537 26.6773 85.0051 27.7854ZM88.1597 27.8537C88.4813 26.4771 88.8507 25.3124 89.8077 25.3124C90.4128 25.3124 90.7314 25.8708 90.6667 26.8232C90.6153 27.0607 90.5599 27.311 90.4939 27.594C90.3982 28.0031 90.2944 28.4087 90.1934 28.8148C90.0907 29.0926 89.9711 29.3546 89.8398 29.5291C89.5935 29.878 89.0076 30.0945 88.6703 30.0945C88.5746 30.0945 87.9841 30.0945 87.9637 29.2239C87.959 28.7903 88.0483 28.3439 88.1597 27.8537ZM104.633 23.3084L104.517 23.176C103.031 23.4771 102.762 23.5249 101.397 23.7093L101.296 23.8097C101.292 23.826 101.287 23.8511 101.28 23.8739L101.276 23.8511C100.259 26.1964 100.289 25.6905 99.4615 27.5368C99.4569 27.4528 99.4569 27.4002 99.4522 27.311L99.245 23.3084L99.1149 23.176C97.558 23.4771 97.5213 23.5249 96.0834 23.7093L95.9714 23.8097C95.9556 23.8575 95.9556 23.9101 95.9463 23.9673L95.9556 23.9877C96.1353 24.9062 96.0922 24.7013 96.2725 26.1509C96.3565 26.8622 96.4685 27.5776 96.5526 28.2802C96.6944 29.4561 96.7737 30.0349 96.947 31.8293C95.976 33.4318 95.7461 34.0381 94.8113 35.4444L94.8177 35.4584L94.1595 36.4994C94.0842 36.6091 94.0159 36.6844 93.9202 36.7165C93.8152 36.7685 93.6786 36.7778 93.489 36.7778H93.1242L92.5821 38.5809L94.4419 38.613C95.5337 38.6084 96.2199 38.0978 96.5893 37.4115L97.7588 35.4076H97.7401L97.8632 35.2664C98.6498 33.573 104.633 23.3084 104.633 23.3084ZM85.0051 46.9901H84.2161L87.1362 37.3319H88.1048L88.4124 36.3369L88.4421 37.4433C88.4059 38.1272 88.944 38.7335 90.3573 38.6332H91.9918L92.5544 36.7734H91.9393C91.5857 36.7734 91.4217 36.6841 91.4421 36.4927L91.4124 35.3671H88.3855V35.3729C87.4069 35.3933 84.4845 35.4669 83.8928 35.6244C83.1768 35.8088 82.4223 36.3515 82.4223 36.3515L82.7187 35.3554H79.8874L79.2974 37.3319L76.3383 47.1377H75.764L75.2009 48.9841H80.8403L80.6512 49.5997H83.4301L83.6145 48.9841H84.3941L85.0051 46.9901ZM82.6913 39.2943C82.2379 39.4198 81.3941 39.8003 81.3941 39.8003L82.1445 37.3319H84.3941L83.8514 39.1304C83.8514 39.1304 83.1564 39.1712 82.6913 39.2943ZM82.7345 42.8207C82.7345 42.8207 82.0278 42.9094 81.5627 43.0144C81.1046 43.1533 80.2457 43.591 80.2457 43.591L81.0206 41.0222H83.2818L82.7345 42.8207ZM81.474 47.0129H79.2175L79.8716 44.845H82.1212L81.474 47.0129ZM86.9083 41.0222H90.161L89.6936 42.5359H86.3977L85.9029 44.1908H88.7868L86.6031 47.2655C86.4503 47.4914 86.3131 47.5713 86.1608 47.6349C86.0079 47.7125 85.8072 47.8036 85.5749 47.8036H84.7749L84.2252 49.6161H86.3178C87.4055 49.6161 88.048 49.1212 88.5224 48.4717L90.0198 46.4223L90.3413 48.5032C90.4096 48.893 90.6897 49.1212 90.8794 49.2099C91.0888 49.3149 91.3053 49.4953 91.6111 49.5221C91.9391 49.5361 92.176 49.5472 92.3335 49.5472H93.3617L93.9791 47.5188H93.5736C93.3407 47.5188 92.9398 47.4797 92.8716 47.4068C92.8033 47.3181 92.8033 47.1815 92.7665 46.9738L92.4403 44.8882H91.1046L91.6905 44.1908H94.9799L95.4858 42.5359H92.4403L92.9148 41.0222H95.9509L96.5141 39.1554H87.4621L86.9083 41.0222ZM59.4361 47.4344L60.1953 44.9088H63.3155L63.8857 43.0303H60.7625L61.2393 41.4758H64.2912L64.8567 39.6569H57.2204L56.6666 41.4758H58.4015L57.9388 43.0303H56.1992L55.6227 44.9409H57.357L56.3451 48.2822C56.2085 48.7246 56.4093 48.8932 56.5365 49.0986C56.6666 49.2988 56.7985 49.4312 57.095 49.5065C57.4007 49.5748 57.6102 49.6156 57.895 49.6156H61.4126L62.0393 47.5347L60.4801 47.7489C60.179 47.7489 59.3451 47.7127 59.4361 47.4344ZM59.794 35.344L59.0033 36.7731C58.8341 37.0853 58.6818 37.2791 58.5447 37.3683C58.4239 37.4436 58.1846 37.4751 57.838 37.4751H57.4254L56.874 39.3034H58.2441C58.9029 39.3034 59.4089 39.0618 59.6505 38.941C59.9101 38.8021 59.9784 38.8815 60.1792 38.6877L60.6419 38.2868H64.9205L65.4882 36.3833H62.3564L62.9031 35.344H59.794ZM66.1105 47.4711C66.0376 47.366 66.0901 47.181 66.2016 46.7959L67.371 42.9253H71.5311C72.1374 42.9165 72.575 42.9095 72.8598 42.8891C73.1656 42.857 73.4982 42.7479 73.8606 42.5518C74.2346 42.3464 74.426 42.1299 74.5877 41.8813C74.768 41.6333 75.0574 41.0906 75.306 40.2538L76.776 35.3555L72.4589 35.3806C72.4589 35.3806 71.1296 35.5767 70.5443 35.7932C69.9538 36.0348 69.11 36.7093 69.11 36.7093L69.4998 35.3666H66.833L63.0994 47.7488C62.967 48.2297 62.8783 48.5786 62.8579 48.7881C62.8509 49.014 63.1426 49.2375 63.3317 49.4061C63.5552 49.5747 63.8855 49.5473 64.2023 49.5747C64.5356 49.5998 65.0094 49.6156 65.6635 49.6156H67.7129L68.342 47.4915L66.5073 47.6648C66.3113 47.6648 66.1695 47.5598 66.1105 47.4711ZM68.1255 40.311H72.4951L72.2173 41.1816C72.1782 41.202 72.0849 41.1384 71.6402 41.191H67.8565L68.1255 40.311ZM69.0008 37.3909H73.4072L73.0903 38.4396C73.0903 38.4396 71.0135 38.4191 70.6809 38.4804C69.2173 38.7337 68.3624 39.5156 68.3624 39.5156L69.0008 37.3909ZM72.3151 44.0972C72.2789 44.2273 72.2218 44.3067 72.1418 44.3662C72.0531 44.4234 71.9096 44.4438 71.6954 44.4438H71.0728L71.1095 43.3835H68.5198L68.4147 48.5671C68.4106 48.9412 68.4468 49.1577 68.7205 49.331C68.9942 49.5475 69.8374 49.5749 70.9724 49.5749H72.5952L73.1811 47.6346L71.7683 47.7122L71.2986 47.7397C71.2344 47.7122 71.1731 47.6871 71.1049 47.6189C71.0453 47.5599 70.945 47.5961 70.9613 47.2221L70.9724 45.8933L72.454 45.8321C73.254 45.8321 73.596 45.5718 73.8878 45.3238C74.1661 45.0863 74.2572 44.8132 74.3622 44.4438L74.6108 43.2674H72.5748L72.3151 44.0972Z" fill="#FEFEFE"/>
</svg>

<svg xmlns="http://www.w3.org/2000/svg" width="128" height="64" fill="none"><rect width="128" height="64" fill="#fff" rx="6"/><path fill="#E21836" d="M34.825 2h23.94c3.343 0 5.421 2.724 4.642 6.077L52.26 55.932C51.474 59.274 48.127 62 44.782 62H20.845c-3.337 0-5.42-2.726-4.641-6.068l11.15-47.855C28.135 4.724 31.48 2 34.825 2Z"/><path fill="#00447C" d="M56.774 2h27.531c3.342 0 1.835 2.724 1.049 6.077L74.209 55.932C73.427 59.274 73.671 62 70.323 62H42.791c-3.348 0-5.42-2.726-4.633-6.068L49.3 8.077C50.093 4.724 53.43 2 56.774 2Z"/><path fill="#007B84" d="M83.213 2h23.941c3.347 0 5.426 2.724 4.64 6.077l-11.145 47.855C99.862 59.274 96.514 62 93.168 62h-23.93c-3.348 0-5.425-2.726-4.64-6.068L75.742 8.077C76.523 4.724 79.865 2 83.213 2Z"/><path fill="#FEFEFE" d="M41.077 17.336c-2.462.025-3.189 0-3.421-.055-.09.425-1.75 8.088-1.755 8.095-.358 1.55-.618 2.655-1.502 3.37-.502.414-1.088.614-1.767.614-1.092 0-1.728-.542-1.835-1.57l-.02-.353s.332-2.077.332-2.089c0 0 1.744-6.984 2.056-7.907a.667.667 0 0 0 .025-.105c-3.394.03-3.995 0-4.037-.055-.023.076-.107.509-.107.509l-1.78 7.871-.153.668-.296 2.183c0 .648.128 1.177.38 1.624.812 1.417 3.126 1.63 4.434 1.63 1.687 0 3.269-.359 4.338-1.013 1.856-1.096 2.341-2.81 2.774-4.333l.2-.782s1.797-7.253 2.102-8.197c.012-.052.017-.08.032-.105Zm6.112 5.852c-.433 0-1.225.105-1.935.453-.258.133-.502.285-.76.438l.233-.839-.128-.141c-1.507.305-1.844.346-3.236.542l-.117.078c-.162 1.34-.305 2.348-.905 4.982-.228.972-.465 1.952-.702 2.92l.064.124a34.588 34.588 0 0 1 3.1-.055l.1-.11c.158-.806.178-.995.527-2.63.164-.775.506-2.478.675-3.084.31-.143.615-.285.907-.285.695 0 .61.607.584.848-.03.406-.283 1.73-.543 2.868l-.173.734c-.121.542-.254 1.069-.375 1.606l.053.108a33.313 33.313 0 0 1 3.036-.055l.141-.11c.218-1.26.281-1.597.666-3.432l.194-.843c.376-1.65.565-2.488.28-3.17-.3-.763-1.023-.947-1.686-.947Zm6.827 1.728c-.748.143-1.225.239-1.698.3-.47.076-.928.144-1.65.244l-.058.052-.053.042c-.075.538-.127 1.003-.227 1.55a28.388 28.388 0 0 1-.427 2.13c-.164.707-.248.954-.342 1.202-.09.249-.191.49-.375 1.186l.043.064.036.059c.675-.032 1.117-.055 1.57-.06.454-.016.924 0 1.651.005l.064-.052.068-.057c.105-.627.12-.796.185-1.101.064-.328.173-.782.442-1.995.128-.57.27-1.137.401-1.718.137-.58.28-1.15.417-1.72l-.02-.068-.027-.063Zm.016-2.33c-.68-.401-1.872-.274-2.674.28-.8.543-.891 1.313-.214 1.719.667.39 1.864.274 2.66-.285.798-.554.897-1.317.227-1.714Zm4.107 9.284c1.375 0 2.783-.378 3.844-1.502.815-.912 1.19-2.268 1.319-2.826.422-1.851.093-2.716-.32-3.242-.626-.802-1.733-1.06-2.883-1.06-.69 0-2.336.069-3.622 1.254-.923.855-1.35 2.015-1.607 3.127-.26 1.133-.558 3.173 1.318 3.932.579.249 1.413.317 1.951.317Zm-.107-4.165c.317-1.401.69-2.577 1.646-2.577.748 0 .802.875.47 2.281-.06.312-.333 1.473-.703 1.967-.258.365-.563.586-.9.586-.1 0-.697 0-.707-.886-.004-.438.085-.885.194-1.37Zm8.705 3.985.108-.11c.152-.806.177-.996.514-2.63.169-.775.518-2.477.682-3.084.31-.144.61-.285.912-.285.69 0 .606.606.579.848-.025.406-.278 1.73-.543 2.867l-.164.734c-.125.543-.262 1.07-.383 1.607l.053.108a33.237 33.237 0 0 1 3.031-.055l.146-.11c.212-1.26.27-1.597.666-3.432l.19-.844c.377-1.65.569-2.486.289-3.168-.31-.764-1.037-.948-1.691-.948-.434 0-1.23.104-1.936.453-.253.133-.506.285-.755.438l.217-.839-.116-.141c-1.507.305-1.851.346-3.242.542l-.107.078c-.168 1.34-.305 2.347-.905 4.983-.228.97-.465 1.951-.702 2.92l.064.123a34.515 34.515 0 0 1 3.093-.055Zm10.367.055c.089-.433.616-3 .62-3 0 0 .45-1.883.477-1.951 0 0 .141-.196.282-.274h.208c1.96 0 4.173 0 5.908-1.276 1.18-.875 1.988-2.168 2.348-3.739a5.65 5.65 0 0 0 .162-1.301c0-.602-.12-1.197-.47-1.662-.884-1.238-2.646-1.26-4.68-1.27l-1.002.01c-2.603.032-3.647.022-4.076-.03-.036.19-.105.527-.105.527s-.932 4.321-.932 4.328l-2.337 9.622c2.273-.028 3.205-.028 3.597.016Zm1.728-7.678s.992-4.313.987-4.296l.032-.221.014-.169.396.04 2.093.181c.807.312 1.14 1.117.907 2.168-.212.96-.834 1.767-1.634 2.156-.66.33-1.466.358-2.298.358h-.538l.041-.216Zm6.173 3.718c-.262 1.117-.563 3.157 1.304 3.884a3.643 3.643 0 0 0 1.67.302c.573-.031 1.103-.318 1.595-.732l-.133.51.084.11c1.343-.057 1.76-.057 3.214-.046l.132-.1c.213-1.25.413-2.462.965-4.85.269-1.145.537-2.278.813-3.418l-.043-.125a60.602 60.602 0 0 1-3.348.542l-.11.09c-.014.116-.03.227-.044.339a2.065 2.065 0 0 0-1.052-.866c-.643-.253-2.152.073-3.45 1.254-.91.843-1.348 1.998-1.597 3.106Zm3.155.069c.321-1.377.69-2.542 1.648-2.542.605 0 .923.559.859 1.511a48.35 48.35 0 0 1-.173.771c-.096.41-.2.815-.3 1.22-.103.279-.223.54-.354.715-.246.349-.832.566-1.17.566-.095 0-.686 0-.706-.871-.005-.434.084-.88.196-1.37Zm16.473-4.546-.116-.132c-1.486.301-1.755.349-3.12.533l-.101.1c-.004.017-.009.042-.016.065l-.004-.023c-1.017 2.345-.987 1.84-1.814 3.686-.005-.084-.005-.137-.01-.226l-.207-4.003-.13-.132c-1.557.301-1.594.349-3.032.533l-.112.1c-.015.049-.015.101-.025.158l.01.02c.18.92.136.714.316 2.164.084.711.197 1.427.28 2.13.142 1.175.222 1.754.395 3.548-.971 1.603-1.2 2.21-2.136 3.615l.007.014-.659 1.041c-.075.11-.143.185-.239.218-.105.052-.241.06-.431.06h-.365l-.542 1.804 1.86.032c1.092-.005 1.778-.515 2.147-1.202l1.17-2.003h-.019l.123-.142c.787-1.693 6.77-11.958 6.77-11.958ZM85.005 46.99h-.789l2.92-9.658h.969l.307-.995.03 1.106c-.036.684.502 1.29 1.915 1.19h1.635l.562-1.86h-.615c-.353 0-.517-.089-.497-.28l-.03-1.126h-3.027v.006c-.978.02-3.9.094-4.492.251-.716.185-1.47.727-1.47.727l.296-.996h-2.832l-.59 1.977-2.959 9.806h-.574l-.563 1.846h5.64l-.19.616h2.78l.184-.616h.78l.61-1.994Zm-2.314-7.696c-.453.126-1.297.506-1.297.506l.75-2.468h2.25l-.543 1.798s-.695.041-1.16.164Zm.043 3.527s-.706.088-1.171.193c-.458.14-1.317.577-1.317.577l.775-2.569h2.26l-.547 1.799Zm-1.26 4.192h-2.257l.655-2.168h2.25l-.648 2.168Zm5.434-5.99h3.253l-.467 1.513h-3.296l-.495 1.655h2.884l-2.184 3.075a.899.899 0 0 1-.442.369c-.153.078-.354.169-.586.169h-.8l-.55 1.812h2.093c1.088 0 1.73-.495 2.204-1.144l1.498-2.05.321 2.081c.069.39.349.618.538.707.21.105.426.285.732.312.328.014.565.025.722.025h1.029l.617-2.028h-.405c-.233 0-.634-.04-.702-.112-.069-.089-.069-.225-.106-.433l-.326-2.086h-1.335l.585-.697h3.29l.506-1.655H92.44l.475-1.514h3.036l.563-1.867h-9.052l-.554 1.867Zm-27.472 6.411.76-2.525h3.12l.57-1.879h-3.123l.476-1.554h3.052l.566-1.82H57.22l-.553 1.82H58.4l-.462 1.554h-1.74l-.576 1.91h1.734l-1.012 3.342c-.136.443.064.611.191.817.13.2.262.332.559.408.306.068.515.109.8.109h3.518l.626-2.081-1.559.214c-.301 0-1.135-.036-1.044-.315Zm.358-12.09-.79 1.43c-.17.311-.322.505-.46.594-.12.076-.36.107-.706.107h-.413l-.551 1.828h1.37c.659 0 1.165-.241 1.407-.362.26-.139.327-.06.528-.253l.463-.401h4.279l.567-1.904h-3.132l.547-1.039h-3.109Zm6.317 12.127c-.073-.105-.02-.29.09-.675l1.17-3.87h4.16a27.992 27.992 0 0 0 1.329-.037c.306-.032.638-.141 1-.337.375-.206.566-.422.728-.67.18-.249.47-.791.718-1.628l1.47-4.898-4.317.025s-1.33.196-1.915.412c-.59.242-1.434.916-1.434.916l.39-1.342h-2.667l-3.734 12.382c-.132.48-.22.83-.241 1.04-.007.225.285.448.474.617.223.169.553.141.87.169.334.025.807.04 1.462.04h2.049l.629-2.123-1.835.173a.483.483 0 0 1-.397-.194Zm2.014-7.16h4.37l-.278.87c-.039.021-.132-.043-.577.01h-3.784l.27-.88Zm.876-2.92h4.406l-.317 1.049s-2.077-.02-2.41.04c-1.463.254-2.318 1.036-2.318 1.036l.639-2.125Zm3.314 6.706a.466.466 0 0 1-.173.27c-.089.056-.232.077-.447.077h-.622l.037-1.06h-2.59l-.105 5.183c-.004.374.032.59.305.764.274.216 1.117.244 2.252.244h1.623l.586-1.94-1.413.077-.47.028c-.064-.028-.125-.053-.193-.121-.06-.06-.16-.023-.144-.397l.011-1.329 1.482-.06c.8 0 1.142-.261 1.434-.51.278-.237.37-.51.474-.88l.249-1.176h-2.036l-.26.83Z"/></svg>
